packages/icons/raw/imported/MediaFastBack.svg

<svg width="32" height="32" viewBox="0 0 32 32" fill="none" xmlns="http://www.w3.org/2000/svg">
<path d="M21.8393 22.4547L16.8945 18.0899C15.7018 17.0371 15.7018 14.9629 16.8945 13.9101L21.8393 9.54534C23.3381 8.22238 25.5 9.45664 25.5 11.6353V20.3647C25.5 22.5434 23.3381 23.7776 21.8393 22.4547Z" stroke="black"/>
<path d="M12.3393 22.4547L7.39454 18.0899C6.20182 17.0371 6.20182 14.9629 7.39454 13.9101L12.3393 9.54534C13.8381 8.22238 16 9.45664 16 11.6353V20.3647C16 22.5434 13.8381 23.7776 12.3393 22.4547Z" stroke="black"/>
</svg>

<svg width="32" height="32" fill="none" xmlns="http://www.w3.org/2000/svg"><path d="m21.84 22.455-4.945-4.365c-1.193-1.053-1.193-3.127 0-4.18l4.944-4.365c1.5-1.323 3.661-.088 3.661 2.09v8.73c0 2.178-2.162 3.413-3.66 2.09Z" stroke="#000"/><path d="M12.34 22.455 7.394 18.09c-1.193-1.053-1.193-3.127 0-4.18l4.944-4.365C13.84 8.222 16 9.457 16 11.635v8.73c0 2.178-2.162 3.413-3.66 2.09Z" stroke="#000"/></svg>
